X:118
T:Jinny Jan - Webber
%%VWML:SBG-1-2-135-0
F:http://www.vwml.org/record/SBG/1/2/135
Z:Original Sibelius transcriptions by M. & S. Graebe
M:3/4
I:linebreak $
K:G
V:1 treble nm="P1"
V:1
 G3/2 A/ B c c F | B B G F A D | G3/2 A/ B c3/2 B/ A | A3/2 d/ D G3 | G3/2 A/ B c2 A |$ B2 G FA D | %6
w: ||||||
 D3/2 G/ B c B A | A d D G3 |"^Chorus" G3/2 A/ B c B A | A d D2 G3 | G3/2 A/ B c B A |$ %11
w: |||* * * Too||
 A d D2 G2 z | G3/2 A/ B c c A | B B G F A D | D3/2 G/ B c B A | A d D G3 | %16
w: * * * Too|||||

